X:7408
T:The Thrush and the Blackbird are Singing
O:england
B:Joyce, P. W.; "Old Irish Folk Music and Songs"
R:song air
L:1/8
M:3/4
K:G
"Slowly and with expression."\
d/e/f|gG G>FED|G/A/B/c/ d2 ef|gd e>c AG|FG A2 d/e/f|
gG G>FED|GG B>d ef|gd e>c B/A/G/F/|GG G3||G/A/|
Bd g2 fg|ed d>B GA|Bd g2 f/a/g/f/|ee e2 de/f/|
gG G>FED|G/A/B/c/ d2 ef|gd e/f/d/c B/A/G/F/|GG G2||


